X:619
T: "Der Kohlenbauer"
N: Z1299
O: Europa, Mitteleuropa, Oesterreich
R: Handwerker -, Bauern - Lied
M: 3/4
L: 1/8
K: Bb
DFBFBd | f2fgf2
Acf3e | edcdB2
DFBFBd | f3gf2
Acf3A | B4z2
B2A2G2 | c3AF2
B2A2G2 | c3AF2
DFBFBd | f3gf2
Acf3A | B4z2

